client/public/img/game/normal/buildings/container_ceiling_3.svg

<?xml version="1.0" encoding="UTF-8" standalone="no"?>
<!-- Created with Inkscape (http://www.inkscape.org/) -->

<svg
   width="281.18002"
   height="279.65399"
   viewBox="0 0 74.395546 73.991786"
   version="1.1"
   id="svg49750"
   xmlns="http://www.w3.org/2000/svg"
   xmlns:svg="http://www.w3.org/2000/svg">
  <defs
     id="defs49747" />
  <g
     id="layer1"
     transform="translate(0,0.35079124)">
    <g
       id="g1"
       transform="translate(-3.0758798e-7,-0.34979399)">
      <rect
         style="fill:#000000;fill-opacity:0.196078;stroke-width:2.48164;stroke-linecap:square;paint-order:fill markers stroke"
         id="rect1"
         width="48.054726"
         height="34.665237"
         x="13.170411"
         y="39.32555" />
    </g>
    <path
       id="rect1049-9-7-5-1-7-8"
       style="fill:#a1a1a1;fill-opacity:1;stroke-width:2.15008;paint-order:markers stroke fill;stop-color:#000000"
       d="M 0 -0.35079124 L 0 147.63294 L 74.395458 147.63294 L 74.395458 -0.35079124 L 63.075736 -0.35079124 L 59.394307 5.9992087 L 15.001151 5.9992087 L 11.319722 -0.35079124 L 0 -0.35079124 z M 40.612508 56.335154 L 58.740083 70.220094 L 45.408081 68.841367 L 28.719177 72.485072 L 14.140222 65.690138 L 24.882719 58.599615 L 29.870011 61.258884 L 40.612508 56.335154 z " />
    <path
       id="rect1049-9-7-2-9-5-4-02"
       style="fill:#e0e0e0;fill-opacity:1;stroke-width:1.97626;paint-order:markers stroke fill;stop-color:#000000"
       d="M 3.3512166 3.3197857 L 3.3512166 143.96236 L 71.044242 143.96236 L 71.044242 3.3197857 L 66.956119 3.3197857 L 62.722786 9.6697857 L 11.672672 9.6697857 L 7.4393391 3.3197857 L 3.3512166 3.3197857 z M 40.612508 56.335154 L 58.740083 70.220094 L 45.408081 68.841367 L 28.719177 72.485072 L 14.140222 65.690138 L 24.882719 58.599615 L 29.870011 61.258884 L 40.612508 56.335154 z " />
    <path
       id="rect24996-9-4-4-8"
       style="fill:#ffffff;stroke-width:2.96972;paint-order:markers stroke fill;stop-color:#000000"
       d="M 3.3512278,14.586033 H 71.044379 V 25.323131 H 3.3512278 Z" />
    <path
       id="rect4123"
       style="fill:#ffffff;stroke-width:2.96972;paint-order:markers stroke fill;stop-color:#000000"
       d="M 3.3512278,36.060226 H 71.044379 V 46.797324 H 3.3512278 Z" />
    <path
       id="rect4125"
       style="fill:#ffffff;stroke-width:2.96972;paint-order:markers stroke fill;stop-color:#000000"
       d="M 3.3512166 57.534564 L 3.3512166 68.271893 L 19.679419 68.271893 L 14.140222 65.690138 L 24.882719 58.599615 L 29.870011 61.258884 L 37.995613 57.534564 L 3.3512166 57.534564 z M 42.178304 57.534564 L 56.196569 68.271893 L 71.044242 68.271893 L 71.044242 57.534564 L 42.178304 57.534564 z " />
    <path
       id="rect4127"
       style="fill:#ffffff;stroke-width:2.96972;paint-order:markers stroke fill;stop-color:#000000"
       d="M 3.3512278,79.008789 H 71.044379 V 89.745943 H 3.3512278 Z" />
    <path
       id="rect4129"
       style="fill:#ffffff;stroke-width:2.96972;paint-order:markers stroke fill;stop-color:#000000"
       d="M 3.3512278,100.4831 H 71.044379 v 10.73715 H 3.3512278 Z" />
    <path
       id="rect4131"
       style="fill:#ffffff;stroke-width:2.96972;paint-order:markers stroke fill;stop-color:#000000"
       d="M 3.3512278,121.95741 H 71.044379 v 10.73716 H 3.3512278 Z" />
    <path
       style="fill:#000000;fill-opacity:0;stroke:#a1a1a1;stroke-width:2.20392;stroke-dasharray:none;stroke-opacity:1;paint-order:markers stroke fill;stop-color:#000000"
       d="m 14.140246,65.690181 14.578992,6.79487 16.68902,-3.643642 13.33204,1.378685 -18.12775,-13.88519 -10.74234,4.923846 -4.98756,-2.658889 z"
       id="path30147-6-5" />
  </g>
</svg>

<svg xmlns="http://www.w3.org/2000/svg" width="281.18" height="279.654" viewBox="0 0 74.396 73.992"><path d="M13.17 39.326h48.055v34.665H13.17z" style="fill:#000;fill-opacity:.196078;stroke-width:2.48164;stroke-linecap:square;paint-order:fill markers stroke" transform="translate(0 .001)"/><path d="M0-.35v147.983h74.395V-.351h-11.32L59.396 6H15L11.32-.35zm40.613 56.685L58.74 70.22l-13.332-1.379-16.689 3.644L14.14 65.69l10.743-7.09 4.987 2.659z" style="fill:#a1a1a1;fill-opacity:1;stroke-width:2.15008;paint-order:markers stroke fill;stop-color:#000" transform="translate(0 .35)"/><path d="M3.351 3.32v140.642h67.693V3.32h-4.088l-4.233 6.35h-51.05L7.439 3.32zm37.262 53.015L58.74 70.22l-13.332-1.379-16.689 3.644L14.14 65.69l10.743-7.09 4.987 2.659z" style="fill:#e0e0e0;fill-opacity:1;stroke-width:1.97626;paint-order:markers stroke fill;stop-color:#000" transform="translate(0 .35)"/><path d="M3.351 14.586h67.693v10.737H3.351ZM3.351 36.06h67.693v10.737H3.351ZM3.351 57.535v10.737H19.68L14.14 65.69l10.743-7.09 4.987 2.659 8.126-3.724zm38.827 0 14.019 10.737h14.847V57.535zM3.351 79.009h67.693v10.737H3.351ZM3.351 100.483h67.693v10.737H3.351ZM3.351 121.957h67.693v10.738H3.351Z" style="fill:#fff;stroke-width:2.96972;paint-order:markers stroke fill;stop-color:#000" transform="translate(0 .35)"/><path fill="none" d="m14.14 65.69 14.58 6.795 16.688-3.644 13.332 1.38-18.127-13.886-10.743 4.924-4.987-2.66z" style="fill:#000;fill-opacity:0;stroke:#a1a1a1;stroke-width:2.20392;stroke-dasharray:none;stroke-opacity:1;paint-order:markers stroke fill;stop-color:#000" transform="translate(0 .35)"/></svg>
